X: 6
T: Jimmy Lyons
Z: Erik-Fiddler
S: https://thesession.org/tunes/171#setting49844
R: strathspey
M: 4/4
L: 1/8
K: Amaj
|:A>ag>a e<A~c>A|F>Ad>c ~B3 c/|(3Ace a>f e>A~c>A|1F>AG>B c<A ~{F}(3E/D/E/E:|2 F>AG>B c<A[AA]>f||
|:e<cc>e f<dd>c|d>B^d>f g<e[Be]>f|1e/f/e c>e f<dd>f|(3efe (3dcB (3Ace (3agf:|2e/f/e c>e f>df>a|(3gab (3efg (3aec (3dcB||

%-------------------- TUNE SEPARATOR --------------------%

